X: 17
T:Meggy's Foot
% Nottingham Music Database
S:NPTB, via EF
M:4/4
L:1/4
K:G
"G"[g/2b/2][f/2a/2][e/2g/2][d/2g/2] [B2d2]|"G"[B/2d/2][c/2e/2][dg] "D"[A2d2]|"G"[g/2b/2][f/2a/2][e/2g/2][d/2g/2] [Bd][GB]|"G"[B/2d/2][c/2e/2][dg]G:|
"G"[GB][GB] [B/2d/2][c/2e/2][dg]|"D"[Ad][Ad] [B/2d/2][c/2e/2][df]|"G"[GB][GB] [B/2d/2][c/2e/2][dg]|"G"[B/2d/2][c/2e/2][dg]G:|
"G"[Bd][gb] [Bd][gb]|"G"[Bd][gb] "D"[A2d2]|"G"[Bd][gb] [Bd][gb]|"G"[Bd][gb]G:|
"G"[g/2b/2][f/2a/2][e/2g/2][d/2g/2] [c/2e/2][B/2d/2][A/2c/2][G/2B/2]|"G"[B/2d/2][c/2e/2][d/2g/2][B/2d/2] "D"[A/2d/2][B/2d/2][c/2e/2][A/2d/2]|\
"G"[g/2b/2][f/2a/2][e/2g/2][d/2g/2] [c/2e/2][B/2d/2][A/2c/2][G/2B/2]|"G"[B/2d/2][c/2e/2][d/2g/2][B/2d/2]G:|
"G"[B/2d/2][d/2g/2][g/2b/2][d/2g/2] [B/2d/2][d/2g/2][g/2b/2][d/2g/2]|"G"[B/2d/2][d/2g/2][g/2b/2][d/2g/2] "D"[A/2d/2][d/2f/2][g/2b/2][d/2f/2]|\
"G"[B/2d/2][d/2g/2][g/2b/2][d/2g/2] [B/2d/2][d/2g/2][g/2b/2][d/2g/2]|"G"[B/2d/2][d/2g/2][g/2b/2][d/2g/2]G:|
"G"[g3/2b3/2][d/2g/2] [Bd][GB]|"G"[Bd][dg] "D"[A2d2]|"G"[g3/2b3/2][d/2g/2] [Bd][GB]|"G"[Bd][dg]G:|
"G"[GB][GB] [B/2d/2][c/2e/2][dg]|"D"[Ad][Ad] [B/2d/2][c/2e/2][df]|"G"[GB][GB] [B/2d/2][c/2e/2][dg]|"G"[B/2d/2][c/2e/2][dg]G:|
"G"[Bd][gb] [Bd][gb]|"G"[Bd][gb] "D"[A2d2]|"G"[Bd][gb] [Bd][gb]|"G"[Bd][gb]G:|


